X:2
T:La Pernette
R:Chanson
O:France
M:6/8
L:1/8
Q:1/4=130
K:Bb
z G2 | d3 c d e | d3 c z c | d z (=ef) z f | d3 {cd}c B c |
d3-d z G | d3 c d e | d3 c2 c | d2 c B2 A | G2 A B2 c |
 d2 B d3-d z B |  c2 d B2 A | G6 ||
W:La pernette se lève,
W:Tra la, la-la, la la, la la la la ;
W:La pernette se lève
W:Trois heures avant le jour (3x)
@@/ABC@@


@@ABC@@
